build/assets/img/svg/icon-seo.svg

<svg width="48" height="48" viewBox="0 0 48 48" fill="none" xmlns="http://www.w3.org/2000/svg">
<g clip-path="url(#clip0)">
<path d="M28.0019 29.6427L26.6406 28.2813L28.0184 26.6309L29.1075 27.72L30.2026 27.7139L37.0081 34.7944L34.2554 37.5472L27.4499 30.4668L28.0019 29.6427Z" fill="#C43B55"/>
<path fill-rule="evenodd" clip-rule="evenodd" d="M20.1789 12.6851C16.0536 12.7253 12.686 16.1125 12.6571 20.2507C12.6283 24.3889 15.9492 27.7111 20.0745 27.6709C24.1998 27.6308 27.5674 24.2435 27.5962 20.1053C27.6064 18.6478 27.2015 17.2929 26.4927 16.1499C26.3509 15.9212 26.4227 15.6174 26.6531 15.4713C26.8834 15.3252 27.1851 15.3921 27.327 15.6208C28.1292 16.9146 28.5873 18.4487 28.5758 20.0958C28.5432 24.7767 24.734 28.6082 20.0676 28.6536C15.4013 28.699 11.6449 24.9412 11.6775 20.2602C11.7101 15.5793 15.5194 11.7479 20.1857 11.7024C21.9339 11.6854 23.5557 12.2027 24.8976 13.1026C25.1207 13.2523 25.1777 13.5571 25.0247 13.7835C24.8718 14.0099 24.5669 14.0721 24.3438 13.9224C23.1579 13.1272 21.7256 12.6701 20.1789 12.6851Z" fill="black"/>
<path fill-rule="evenodd" clip-rule="evenodd" d="M20.0598 29.6371C25.2671 29.5864 29.518 25.3108 29.5543 20.0872C29.5906 14.8635 25.3987 10.6699 20.1913 10.7206C14.9839 10.7712 10.7331 15.0468 10.6968 20.2705C10.684 22.1101 11.1951 23.8206 12.0899 25.2635C12.2317 25.4922 12.1599 25.796 11.9295 25.9421C11.6992 26.0882 11.3974 26.0213 11.2556 25.7926C10.2674 24.1989 9.70303 22.3091 9.71715 20.28C9.75725 14.5136 14.4498 9.79376 20.1981 9.73788C25.9465 9.682 30.574 14.3113 30.5339 20.0776C30.4938 25.844 25.8013 30.5639 20.0529 30.6197C17.8992 30.6407 15.9016 30.0034 14.2485 28.8949C14.0254 28.7452 13.9684 28.4404 14.1214 28.214C14.2743 27.9876 14.5791 27.9254 14.8023 28.0751C16.2993 29.079 18.1075 29.656 20.0598 29.6371Z" fill="black"/>
<path fill-rule="evenodd" clip-rule="evenodd" d="M27.9507 26.0145L29.4056 27.4739L29.7698 27.4187C30.3047 27.3375 30.8424 27.5132 31.2208 27.8929L36.8877 33.5776C37.2661 33.9571 37.4412 34.4963 37.3605 35.0327L37.3299 35.2357C37.2744 35.6045 37.1014 35.9472 36.837 36.2125L35.8475 37.2051C35.583 37.4704 35.2413 37.6439 34.8737 37.6996L34.6714 37.7303C34.1366 37.8113 33.5992 37.6356 33.2208 37.256L27.5538 31.5712C27.1754 31.1916 27.0003 30.6525 27.081 30.116L27.136 29.7508L25.681 28.2918L27.9507 26.0145ZM28.1168 29.8005L28.0496 30.2469C28.015 30.4768 28.0901 30.7078 28.2523 30.8705L33.9193 36.5554C34.0814 36.718 34.3118 36.7933 34.541 36.7586L34.7432 36.728C34.9008 36.7041 35.0472 36.6297 35.1606 36.516L36.1501 35.5234C36.2634 35.4097 36.3375 35.2628 36.3613 35.1048L36.3919 34.9019C36.4265 34.672 36.3514 34.4409 36.1893 34.2782L30.5224 28.5935C30.3602 28.4308 30.1298 28.3555 29.9005 28.3903L29.4552 28.4579L28.1168 29.8005ZM28.5355 28.0024L27.9392 27.4043L27.0664 28.28L27.6627 28.8779L28.5355 28.0024Z" fill="black"/>
</g>
<defs>
<clipPath id="clip0">
<rect width="48" height="48" fill="white"/>
</clipPath>
</defs>
</svg>

<svg width="48" height="48" fill="none" xmlns="http://www.w3.org/2000/svg"><g clip-path="url(#clip0)"><path d="M28.002 29.643L26.64 28.28l1.377-1.65 1.09 1.089 1.095-.006 6.805 7.08-2.753 2.753-6.805-7.08.552-.824z" fill="#C43B55"/><path fill-rule="evenodd" clip-rule="evenodd" d="M20.179 12.685c-4.125.04-7.493 3.428-7.522 7.566a7.332 7.332 0 007.418 7.42c4.125-.04 7.492-3.427 7.521-7.566a7.376 7.376 0 00-1.103-3.955.497.497 0 01.16-.679.485.485 0 01.674.15 8.35 8.35 0 011.249 4.475c-.033 4.68-3.842 8.512-8.508 8.558a8.294 8.294 0 01-8.39-8.394c.032-4.68 3.841-8.512 8.508-8.558 1.748-.017 3.37.5 4.712 1.4.223.15.28.455.127.681a.493.493 0 01-.681.14 7.318 7.318 0 00-4.165-1.238z" fill="#000"/><path fill-rule="evenodd" clip-rule="evenodd" d="M20.06 29.637c5.207-.05 9.458-4.326 9.494-9.55.037-5.223-4.155-9.417-9.363-9.366-5.207.05-9.458 4.326-9.494 9.55a9.312 9.312 0 001.393 4.992.497.497 0 01-.16.68.485.485 0 01-.674-.15 10.286 10.286 0 01-1.539-5.513c.04-5.766 4.733-10.486 10.481-10.542 5.748-.056 10.376 4.573 10.336 10.34-.04 5.766-4.733 10.486-10.481 10.542a10.2 10.2 0 01-5.805-1.725.489.489 0 01-.127-.681.492.492 0 01.681-.139 9.237 9.237 0 005.258 1.562z" fill="#000"/><path fill-rule="evenodd" clip-rule="evenodd" d="M27.95 26.015l1.456 1.459.364-.055a1.687 1.687 0 011.45.474l5.668 5.685a1.7 1.7 0 01.473 1.455l-.031.203a1.755 1.755 0 01-.493.977l-.99.992a1.746 1.746 0 01-.973.495l-.203.03a1.687 1.687 0 01-1.45-.474l-5.667-5.685a1.7 1.7 0 01-.473-1.455l.055-.365-1.455-1.46 2.27-2.276zm.167 3.785l-.067.447c-.035.23.04.46.202.623l5.667 5.685a.723.723 0 00.622.204l.202-.031a.749.749 0 00.418-.212l.99-.993a.753.753 0 00.21-.418l.03-.203a.729.729 0 00-.202-.624l-5.667-5.684a.723.723 0 00-.621-.204l-.446.068-1.338 1.343zm.418-1.798l-.596-.598-.873.876.597.598.872-.876z" fill="#000"/></g><defs><clipPath id="clip0"><path fill="#fff" d="M0 0h48v48H0z"/></clipPath></defs></svg>
